X:633
T: "Der Kuckuck"
N: Z1314
O: Europa, Mitteleuropa, Deutschland, Pfalz, Elsass
R: Zech -, Schalks - Lied
M: 2/4
L: 1/16
K: G
D2 | G3Bd2g2 | e2e2d4 | d3dB2z
B | B2B2B2d2 | c2c2A3
A | c2ccc2e2 | d2d2B2BB | d2A2G2

@@@ Tune index: 10391
